X:155
T:Marche Philippe Bruneau
C:Philippe Bruneau
Z:robin.beech@mcgill.ca
M:6/8
L:1/8
K:D
dfd cfc | BBB B2A | dfd cfc | BBB B2A | ege ded | ccc c2B | AAA ABc |1 dcB AFA :|2 d3- d2A |:
F3- FAd | f3- f2d | e2d c2d | g3- g2f | eee e2d | ccc c2B | AAA ABc |1 dcB ABA :|2 d6 :| 

